svgs/duotone/face-swear.svg

<svg xmlns="http://www.w3.org/2000/svg" viewBox="0 0 640 512"><!--! Font Awesome Pro 6.5.1 by @fontawesome - https://fontawesome.com License - https://fontawesome.com/license (Commercial License) Copyright 2023 Fonticons, Inc. --><defs><style>.fa-secondary{opacity:.4}</style></defs><path class="fa-secondary" d="M64 256H576C576 114.6 461.4 0 320 0S64 114.6 64 256zm208.4-64c0 17.7-14.3 32-32 32s-32-14.3-32-32c0-8.8 3.6-16.8 9.3-22.6l-30.7-10.2c-8.4-2.8-12.9-11.9-10.1-20.2s11.9-12.9 20.2-10.1l96 32c8.4 2.8 12.9 11.9 10.1 20.2s-11.9 12.9-20.2 10.1l-10.9-3.6c.2 1.5 .3 2.9 .3 4.4zm128 32c-17.7 0-32-14.3-32-32c0-1.6 .1-3.2 .3-4.7l-11.7 3.9c-8.4 2.8-17.4-1.7-20.2-10.1s1.7-17.4 10.1-20.2l96-32c8.4-2.8 17.4 1.7 20.2 10.1s-1.7 17.4-10.1 20.2l-30.2 10.1c5.9 5.8 9.5 13.9 9.5 22.8c0 17.7-14.3 32-32 32z"/><path class="fa-primary" d="M0 336c0-26.5 21.5-48 48-48H592c26.5 0 48 21.5 48 48V464c0 26.5-21.5 48-48 48H48c-26.5 0-48-21.5-48-48V336zm416 32c0-8.8-7.2-16-16-16l-16 0V336c0-8.8-7.2-16-16-16s-16 7.2-16 16v16H320V336c0-8.8-7.2-16-16-16s-16 7.2-16 16v16H272c-8.8 0-16 7.2-16 16s7.2 16 16 16h16v32H272c-8.8 0-16 7.2-16 16s7.2 16 16 16h16v16c0 8.8 7.2 16 16 16s16-7.2 16-16V448h32v16c0 8.8 7.2 16 16 16s16-7.2 16-16V448h16c8.8 0 16-7.2 16-16s-7.2-16-16-16H384V384h16c8.8 0 16-7.2 16-16zm-64 16v32H320V384h32zm220.1-29.6c5.8-6.7 5-16.8-1.7-22.6s-16.8-5-22.6 1.7l-96 112c-5.8 6.7-5 16.8 1.7 22.6s16.8 5 22.6-1.7l96-112zM472 376a24 24 0 1 0 0-48 24 24 0 1 0 0 48zm104 72a24 24 0 1 0 -48 0 24 24 0 1 0 48 0zM224 336c0-8.8-7.2-16-16-16s-16 7.2-16 16v64c0 8.8 7.2 16 16 16s16-7.2 16-16V336zM208 480a24 24 0 1 0 0-48 24 24 0 1 0 0 48zM112 320c-8.8 0-16 7.2-16 16v1.5c-5.6 1.2-11.6 3.3-16.9 7c-7.5 5.3-12.7 13.3-14.5 23.5c-1.3 7.2-.6 14.4 2.5 20.9c3 6.4 7.8 10.9 12.4 14.1c6.8 4.7 15 6.9 23.1 9.2c8.4 2.3 16.7 4.7 23.6 9.7c2.6 1.9 2.6 6.7-.4 8.5l0 0c-1.1 .7-3.8 1.6-8.8 1.5c-10.1-.2-22.5-3.9-32-7.1c-8.4-2.8-17.4 1.7-20.2 10.1s1.7 17.4 10.1 20.2c4.9 1.6 12.1 4 20.2 5.9v3c0 8.8 7.2 16 16 16s16-7.2 16-16v-.8c5.1-.8 10.4-2.4 15.3-5.4c9.1-5.5 15-14.4 17-25.9c1.3-7.3 .7-14.5-2.2-21.1c-2.8-6.6-7.4-11.3-12.1-14.7c-7.4-5.4-16-7.8-24.6-10.2c-8-2.3-16-4.5-22.9-9.2c-2.1-1.4-2.2-4.3 .1-5.9c1.1-.8 3.3-1.7 7.4-2.2c8.3-.9 18.9 .8 26.8 2.9c8.5 2.3 17.3-2.8 19.6-11.3s-2.8-17.3-11.3-19.6c-3.4-.9-7.5-1.9-12.1-2.6V336c0-8.8-7.2-16-16-16z"/></svg>

<svg xmlns="http://www.w3.org/2000/svg" viewBox="0 0 640 512"><!--! Font Awesome Pro 6.1.1 by @fontawesome - https://fontawesome.com License - https://fontawesome.com/license (Commercial License) Copyright 2022 Fonticons, Inc. --><defs><style>.fa-secondary{opacity:.4}</style></defs><path class="fa-primary" d="M352 416H320V384H352V416zM0 336C0 309.5 21.49 288 48 288H592C618.5 288 640 309.5 640 336V464C640 490.5 618.5 512 592 512H48C21.49 512 0 490.5 0 464V336zM400 352H384V336C384 327.2 376.8 320 368 320C359.2 320 352 327.2 352 336V352H320V336C320 327.2 312.8 320 304 320C295.2 320 288 327.2 288 336V352H272C263.2 352 256 359.2 256 368C256 376.8 263.2 384 272 384H288V416H272C263.2 416 256 423.2 256 432C256 440.8 263.2 448 272 448H288V464C288 472.8 295.2 480 304 480C312.8 480 320 472.8 320 464V448H352V464C352 472.8 359.2 480 368 480C376.8 480 384 472.8 384 464V448H400C408.8 448 416 440.8 416 432C416 423.2 408.8 416 400 416H384V384H400C408.8 384 416 376.8 416 368C416 359.2 408.8 352 400 352zM572.1 354.4C577.9 347.7 577.1 337.6 570.4 331.9C563.7 326.1 553.6 326.9 547.9 333.6L451.9 445.6C446.1 452.3 446.9 462.4 453.6 468.1C460.3 473.9 470.4 473.1 476.1 466.4L572.1 354.4zM472 376C485.3 376 496 365.3 496 352C496 338.7 485.3 328 472 328C458.7 328 448 338.7 448 352C448 365.3 458.7 376 472 376zM552 424C538.7 424 528 434.7 528 448C528 461.3 538.7 472 552 472C565.3 472 576 461.3 576 448C576 434.7 565.3 424 552 424zM224 336C224 327.2 216.8 320 208 320C199.2 320 192 327.2 192 336V400C192 408.8 199.2 416 208 416C216.8 416 224 408.8 224 400V336zM208 480C221.3 480 232 469.3 232 456C232 442.7 221.3 432 208 432C194.7 432 184 442.7 184 456C184 469.3 194.7 480 208 480zM96 336V337.5C90.36 338.7 84.45 340.8 79.15 344.5C71.63 349.9 66.4 357.8 64.64 368C63.39 375.3 64.04 382.4 67.13 388.9C70.16 395.3 74.89 399.8 79.58 403C87.66 408.5 98.25 411.7 105.1 414L107.5 414.5C116.9 417.3 122.7 419.3 126.2 421.9C127.6 422.8 127.8 423.4 127.8 423.5C127.9 423.5 127.9 423.7 127.1 424.1C128 424.5 128 425.2 127.8 426.4C127.3 429.6 126.3 430.1 125.9 430.4L125.8 430.4C124.7 431.1 122 431.1 117.1 431.9C106.9 431.8 94.52 427.1 85.06 424.8C76.68 422 67.62 426.6 64.82 434.9C62.03 443.3 66.56 452.4 74.94 455.2C79.82 456.8 87.02 459.2 95.11 461V464C95.11 472.8 102.3 480 111.1 480C119.9 480 127.1 472.8 127.1 464V463.2C132.2 462.4 137.5 460.8 142.4 457.8C151.5 452.3 157.4 443.4 159.4 431.9C160.6 424.5 160.1 417.4 157.2 410.7C154.4 404.2 149.8 399.4 145.1 395.1C136.6 389.8 125.4 386.5 117.5 384L116.8 383.8C107.2 380.9 101.2 379 97.56 376.5C96.55 375.9 96.18 375.4 96.07 375.3C96.03 375.1 95.1 374.5 96.18 373.5C96.51 371.6 97.1 371 97.7 370.6C98.76 369.9 101 368.9 105.1 368.4C113.4 367.5 123.1 369.3 131.9 371.4C140.4 373.6 149.2 368.6 151.5 360C153.7 351.5 148.7 342.7 140.1 340.4C136.7 339.5 132.6 338.6 128 337.8V336C128 327.2 120.8 320 112 320C103.2 320 96 327.2 96 336H96zM96.1 375.4C96.1 375.4 96.08 375.3 96.07 375.3z"/><path class="fa-secondary" d="M320 0C461.4 0 576 114.6 576 256H64C64 114.6 178.6 0 320 0zM272.1 187.6L282.9 191.2C291.3 193.1 300.4 189.4 303.2 181.1C305.1 172.7 301.4 163.6 293.1 160.8L197.1 128.8C188.7 126 179.6 130.6 176.8 138.9C174 147.3 178.6 156.4 186.9 159.2L217.7 169.4C211.9 175.2 208.4 183.2 208.4 192C208.4 209.7 222.7 224 240.4 224C258 224 272.4 209.7 272.4 192C272.4 190.5 272.3 189 272.1 187.6V187.6zM400.4 224C418 224 432.4 209.7 432.4 192C432.4 183.1 428.7 175 422.9 169.2L453.1 159.2C461.4 156.4 465.1 147.3 463.2 138.9C460.4 130.6 451.3 126 442.9 128.8L346.9 160.8C338.6 163.6 334 172.7 336.8 181.1C339.6 189.4 348.7 193.1 357.1 191.2L368.7 187.3C368.5 188.8 368.4 190.4 368.4 192C368.4 209.7 382.7 224 400.4 224H400.4z"/></svg>
